X:85
T:The Dusty Miller
Z:Jack Campin, http://www.campin.me.uk/
F:Jack Campin's Nine-Note Tunebook
% last edit 03-02-2013
B:John of the Greeny Cheshire Way
N:(c) John Offord, Reproduced with permission
M:3/2
L:1/8
K:F
A3 B c2A2 G2F2|E2G2 G2A2 B2G2|A3 B c2A2 G2F2|C2F2 F2A2 G2F2:|
K:C
E2F2 G2A2 B2c2|d2D2 D2F2 E2D2|E2F2 G2A2 B2d2|c2C2 C2E2 D2C2:|

